NotoEmoji/emoji_u1f6a0.svg

<svg enable-background="new 0 0 128 128" viewBox="0 0 128 128" xmlns="http://www.w3.org/2000/svg"><path d="m77.07 58.9h-29.44s10.04-7.95 10.04-40.47h9.58c0 30.98 9.82 40.47 9.82 40.47z" fill="#607d8b"/><path d="m85.42 64.34h-45.92c-1.62 0-2.93-1.31-2.93-2.93 0-1.62 1.31-2.93 2.93-2.93h45.92c1.62 0 2.93 1.31 2.93 2.93 0 1.62-1.31 2.93-2.93 2.93z" fill="#607d8b"/><path d="m62.79 55.18c-4.4 0-8.42-.5-11.54-1.33-1.35 2.57-2.56 4-3.18 4.64h28.63c-.54-.64-1.63-2.07-2.88-4.51-3.04.75-6.86 1.2-11.03 1.2z" fill="#37474f"/><path d="m124 34.65-120-26.15v-4.09l120 26.14z" fill="#9e9e9e"/><path d="m92.91 15.53-58.06-11.49c-1.12-.23-2.2.58-2.26 1.73-.13 2.46-1.09 5.97 4.88 7.19 6.71 1.37 13.96 3.35 13.96 3.35 3.43.7 5.83 3.62 6.02 6.96.06 1.16.89 2.14 2.03 2.37l4.15.85c1.14.23 2.28-.34 2.8-1.39 1.48-3 4.84-4.74 8.26-4.04 0 0 7.45 1.01 14.15 2.38 5.98 1.22 7.98 1.44 7.98 1.44s1.62-7.99-3.91-9.35z" fill="#607d8b"/><g fill="#37474f"><circle cx="51.27" cy="13.43" r="5.32"/><circle cx="39.67" cy="11.07" r="5.32"/><circle cx="87.87" cy="20.9" r="5.32"/><circle cx="76.26" cy="18.53" r="5.32"/></g><circle cx="50.81" cy="15.72" fill="#82aec0" r="5.32"/><circle cx="39.2" cy="13.35" fill="#82aec0" r="5.32"/><circle cx="87.75" cy="23.26" fill="#82aec0" r="5.32"/><circle cx="76.14" cy="20.89" fill="#82aec0" r="5.32"/><path d="m35.89 12.36c.25-.74.77-1.39 1.44-1.8s1.49-.57 2.26-.44" fill="none" stroke="#94d1e0" stroke-miterlimit="10" stroke-width="2"/><path d="m47.48 14.54c.82-1.23 2.32-1.98 3.8-1.91" fill="none" stroke="#94d1e0" stroke-miterlimit="10" stroke-width="2"/><path d="m72.8 19.15c.58-1.45 2.19-2.41 3.75-2.24" fill="none" stroke="#94d1e0" stroke-miterlimit="10" stroke-width="2"/><path d="m84.63 21.57c.68-1.41 2.49-2.17 3.98-1.67" fill="none" stroke="#94d1e0" stroke-miterlimit="10" stroke-width="2"/><path d="m29.23 62.2h65.44s11.65 3.41 11.65 3.41h-87.84s3.98-3.41 10.75-3.41z" fill="#82aec0"/><path d="m62.38 123.28v-3.41" fill="#01579b"/><path d="m107.98 119.87h-45.6v3.41h35.55c6.77 0 10.05-3.41 10.05-3.41z" fill="#01579b"/><path d="m108.5 65.73h-92.24l-7.8 5.78.14 35.84c0 7.47 8.19 12.65 8.19 12.65h91.2s8.19-5.17 8.19-12.65l.14-35.84z" fill="#0288d1"/><path d="m16.78 119.87h45.6v3.41c-15.8 0-32.04 0-35.55 0-6.76 0-10.05-3.41-10.05-3.41z" fill="#01579b"/><path d="m116.31 82.76s-.02-10.3-.02-11.33c0-2.14-6.86-5.79-8.67-5.79h-90.36c-1.81 0-8.67 3.65-8.67 5.79 0 1.02-.02 11.33-.02 11.33h22.13s6.24 9.19 31.61 9.19 31.97-9.19 31.97-9.19z" fill="#e0e0e0"/><path d="m93.93 104.49v-24.72c0-1.58 1.28-2.85 2.85-2.85h19.53l-.18 30.43h-19.35c-1.58 0-2.85-1.28-2.85-2.86z" fill="#37474f"/><path d="m95.59 102.42v-20.81c0-1.19.95-2.15 2.13-2.15l18.57-.09-.15 25.2h-18.42c-1.18-.01-2.13-.97-2.13-2.15z" fill="#bae2fd"/><path d="m82.37 120.87h-18.42c-.82 0-1.48-.66-1.48-1.48v-44.02c0-.95.77-1.72 1.72-1.72h18.2c1.9 0 3.45 1.54 3.45 3.45v40.31c-.02 1.91-1.56 3.46-3.47 3.46z" fill="#0288d1" stroke="#01579b" stroke-miterlimit="10" stroke-width="2"/><path d="m80.17 76.88h-11.9c-1.47 0-2.66 1.19-2.66 2.66v25.01c0 1.47 1.19 2.66 2.66 2.66h11.9c1.47 0 2.66-1.19 2.66-2.66v-25.01c-.01-1.47-1.2-2.66-2.66-2.66z" fill="#37474f"/><path d="m79.05 79.49h-9.67c-1.1 0-2 .9-2 2v21.1c0 1.1.9 2 2 2h9.67c1.1 0 2-.9 2-2v-21.1c0-1.1-.89-2-2-2z" fill="#bae2fd"/><path d="m42.55 120.87h18.43c.82 0 1.48-.66 1.48-1.48v-44.02c0-.95-.77-1.72-1.72-1.72h-18.2c-1.9 0-3.45 1.54-3.45 3.45v40.31c.01 1.91 1.55 3.46 3.46 3.46z" fill="#0288d1" stroke="#01579b" stroke-miterlimit="10" stroke-width="2"/><path d="m15.91 68.63c2.23-2.23 5.12-2 6.93-2h16.45c.93 0 1.4 1.13.74 1.78l-.22.22c-1.49 1.49-3.51 2.3-5.61 2.26l-13.83-.32c-.58-.01-6.69.29-4.46-1.94z" fill="#fafafa"/><path d="m30.88 104.49v-24.72c0-1.58-1.28-2.85-2.85-2.85h-19.53l.18 30.43h19.35c1.57 0 2.85-1.28 2.85-2.86z" fill="#37474f"/><path d="m29.22 102.42v-20.81c0-1.19-.95-2.15-2.13-2.15l-18.57-.09.15 25.2h18.42c1.17-.01 2.13-.97 2.13-2.15z" fill="#bae2fd"/><path d="m44.64 76.88h11.9c1.47 0 2.66 1.19 2.66 2.66v25.01c0 1.47-1.19 2.66-2.66 2.66h-11.9c-1.47 0-2.66-1.19-2.66-2.66v-25.01c0-1.47 1.19-2.66 2.66-2.66z" fill="#37474f"/><path d="m45.75 79.49h9.67c1.1 0 2 .9 2 2v21.1c0 1.1-.9 2-2 2h-9.67c-1.1 0-2-.9-2-2v-21.1c0-1.1.9-2 2-2z" fill="#bae2fd"/></svg>

<?xml version="1.0" encoding="utf-8"?>
<!-- Generator: Adobe Illustrator 25.2.3, SVG Export Plug-In . SVG Version: 6.00 Build 0)  -->
<svg version="1.1" id="Layer_2" xmlns="http://www.w3.org/2000/svg" xmlns:xlink="http://www.w3.org/1999/xlink" x="0px" y="0px"
	 viewBox="0 0 128 128" style="enable-background:new 0 0 128 128;" xml:space="preserve">
<g>
	<g>
		<path style="fill:#607D8B;" d="M77.07,58.9H47.63c0,0,10.04-7.95,10.04-40.47h9.58C67.25,49.41,77.07,58.9,77.07,58.9z"/>
		<path style="fill:#607D8B;" d="M85.42,64.34H39.5c-1.62,0-2.93-1.31-2.93-2.93v0c0-1.62,1.31-2.93,2.93-2.93h45.92
			c1.62,0,2.93,1.31,2.93,2.93v0C88.35,63.03,87.04,64.34,85.42,64.34z"/>
		<path style="fill:#37474F;" d="M62.79,55.18c-4.4,0-8.42-0.5-11.54-1.33c-1.35,2.57-2.56,4-3.18,4.64H76.7
			c-0.54-0.64-1.63-2.07-2.88-4.51C70.78,54.73,66.96,55.18,62.79,55.18z"/>
		<polygon style="fill:#9E9E9E;" points="124,34.65 4,8.5 4,4.41 124,30.55 		"/>
		<path style="fill:#607D8B;" d="M92.91,15.53L34.85,4.04c-1.12-0.23-2.2,0.58-2.26,1.73c-0.13,2.46-1.09,5.97,4.88,7.19
			c6.71,1.37,13.96,3.35,13.96,3.35c3.43,0.7,5.83,3.62,6.02,6.96c0.06,1.16,0.89,2.14,2.03,2.37l4.15,0.85
			c1.14,0.23,2.28-0.34,2.8-1.39c1.48-3,4.84-4.74,8.26-4.04c0,0,7.45,1.01,14.15,2.38c5.98,1.22,7.98,1.44,7.98,1.44
			S98.44,16.89,92.91,15.53z"/>
		<circle style="fill:#37474F;" cx="51.27" cy="13.43" r="5.32"/>
		<circle style="fill:#37474F;" cx="39.67" cy="11.07" r="5.32"/>
		<circle style="fill:#37474F;" cx="87.87" cy="20.9" r="5.32"/>
		<circle style="fill:#37474F;" cx="76.26" cy="18.53" r="5.32"/>
		<circle style="fill:#82AEC0;" cx="50.81" cy="15.72" r="5.32"/>
		<circle style="fill:#82AEC0;" cx="39.2" cy="13.35" r="5.32"/>
		<circle style="fill:#82AEC0;" cx="87.75" cy="23.26" r="5.32"/>
		<circle style="fill:#82AEC0;" cx="76.14" cy="20.89" r="5.32"/>
		<path style="fill:none;stroke:#94D1E0;stroke-width:2;stroke-miterlimit:10;" d="M35.89,12.36c0.25-0.74,0.77-1.39,1.44-1.8
			c0.67-0.41,1.49-0.57,2.26-0.44"/>
		<path style="fill:none;stroke:#94D1E0;stroke-width:2;stroke-miterlimit:10;" d="M47.48,14.54c0.82-1.23,2.32-1.98,3.8-1.91"/>
		<path style="fill:none;stroke:#94D1E0;stroke-width:2;stroke-miterlimit:10;" d="M72.8,19.15c0.58-1.45,2.19-2.41,3.75-2.24"/>
		<path style="fill:none;stroke:#94D1E0;stroke-width:2;stroke-miterlimit:10;" d="M84.63,21.57c0.68-1.41,2.49-2.17,3.98-1.67"/>
	</g>
	<path style="fill:#82AEC0;" d="M29.23,62.2c6.76,0,58.24,0,65.44,0s11.65,3.41,11.65,3.41H18.48C18.48,65.61,22.46,62.2,29.23,62.2
		z"/>
	<g>
		<line style="fill:#01579B;" x1="62.38" y1="123.28" x2="62.38" y2="119.87"/>
		<path style="fill:#01579B;" d="M107.98,119.87h-45.6v3.41c15.8,0,32.04,0,35.55,0C104.7,123.28,107.98,119.87,107.98,119.87z"/>
		<path style="fill:#0288D1;" d="M108.5,65.73H16.26l-7.8,5.78l0.14,35.84c0,7.47,8.19,12.65,8.19,12.65h91.2
			c0,0,8.19-5.17,8.19-12.65l0.14-35.84L108.5,65.73z"/>
		<path style="fill:#01579B;" d="M16.78,119.87h45.6v3.41c-15.8,0-32.04,0-35.55,0C20.07,123.28,16.78,119.87,16.78,119.87z"/>
		<path style="fill:#E0E0E0;" d="M116.31,82.76c0,0-0.02-10.3-0.02-11.33c0-2.14-6.86-5.79-8.67-5.79H17.26
			c-1.81,0-8.67,3.65-8.67,5.79c0,1.02-0.02,11.33-0.02,11.33H30.7c0,0,6.24,9.19,31.61,9.19s31.97-9.19,31.97-9.19H116.31z"/>
		<path style="fill:#37474F;" d="M93.93,104.49V79.77c0-1.58,1.28-2.85,2.85-2.85h19.53l-0.18,30.43H96.78
			C95.2,107.35,93.93,106.07,93.93,104.49z"/>
		<g>
			<path style="fill:#BAE2FD;" d="M95.59,102.42V81.61c0-1.19,0.95-2.15,2.13-2.15l18.57-0.09l-0.15,25.2H97.72
				C96.54,104.56,95.59,103.6,95.59,102.42z"/>
		</g>
		<path style="fill:#0288D1;stroke:#01579B;stroke-width:2;stroke-miterlimit:10;" d="M82.37,120.87H63.95
			c-0.82,0-1.48-0.66-1.48-1.48V75.37c0-0.95,0.77-1.72,1.72-1.72h18.2c1.9,0,3.45,1.54,3.45,3.45v40.31
			C85.82,119.32,84.28,120.87,82.37,120.87z"/>
		<path style="fill:#37474F;" d="M80.17,76.88h-11.9c-1.47,0-2.66,1.19-2.66,2.66v25.01c0,1.47,1.19,2.66,2.66,2.66h11.9
			c1.47,0,2.66-1.19,2.66-2.66V79.54C82.82,78.07,81.63,76.88,80.17,76.88z"/>
		<g>
			<path style="fill:#BAE2FD;" d="M79.05,79.49h-9.67c-1.1,0-2,0.9-2,2v21.1c0,1.1,0.9,2,2,2h9.67c1.1,0,2-0.9,2-2v-21.1
				C81.05,80.39,80.16,79.49,79.05,79.49z"/>
		</g>
		<path style="fill:#0288D1;stroke:#01579B;stroke-width:2;stroke-miterlimit:10;" d="M42.55,120.87h18.43
			c0.82,0,1.48-0.66,1.48-1.48V75.37c0-0.95-0.77-1.72-1.72-1.72h-18.2c-1.9,0-3.45,1.54-3.45,3.45v40.31
			C39.1,119.32,40.64,120.87,42.55,120.87z"/>
		<path style="fill:#FAFAFA;" d="M15.91,68.63c2.23-2.23,5.12-2,6.93-2h16.45c0.93,0,1.4,1.13,0.74,1.78l-0.22,0.22
			c-1.49,1.49-3.51,2.3-5.61,2.26l-13.83-0.32C19.79,70.56,13.68,70.86,15.91,68.63z"/>
		<path style="fill:#37474F;" d="M30.88,104.49V79.77c0-1.58-1.28-2.85-2.85-2.85H8.5l0.18,30.43h19.35
			C29.6,107.35,30.88,106.07,30.88,104.49z"/>
		<g>
			<path style="fill:#BAE2FD;" d="M29.22,102.42V81.61c0-1.19-0.95-2.15-2.13-2.15L8.52,79.37l0.15,25.2h18.42
				C28.26,104.56,29.22,103.6,29.22,102.42z"/>
		</g>
		<path style="fill:#37474F;" d="M44.64,76.88h11.9c1.47,0,2.66,1.19,2.66,2.66v25.01c0,1.47-1.19,2.66-2.66,2.66h-11.9
			c-1.47,0-2.66-1.19-2.66-2.66V79.54C41.98,78.07,43.17,76.88,44.64,76.88z"/>
		<g>
			<path style="fill:#BAE2FD;" d="M45.75,79.49h9.67c1.1,0,2,0.9,2,2v21.1c0,1.1-0.9,2-2,2h-9.67c-1.1,0-2-0.9-2-2v-21.1
				C43.75,80.39,44.65,79.49,45.75,79.49z"/>
		</g>
	</g>
</g>
</svg>
